X:1
T:Title
%%score { ( 1 3 ) | ( 2 4 ) }
L:1/8
Q:1/4=105
M:6/8
K:C
V:1 treble nm="Grand Piano"
V:3 treble 
V:2 bass 
V:4 bass 
V:1
 [EG]2 [Ge] [Ed]2 [Ec] | [Fc]2 [FB] [FB]3 | [FA]2 [FG] [FA]2 [FG] | AB[_Ec] .[=EG]3 | %4
w: R.~Frank~Lehman * * *||||
 [EG]2 [Ge] [Fd]2 c | c2 B B3 | [^Fd]2 [FA] [Fd]2 [FA] | d3 .G3 | .[Ec]6[K:bass] | [EG]6 | %10
w: ||||||
 [B,FG]6 | [CEG]6 | [Ec]2 [Ec] [DB]2 [EA] | [B,D]3 [DG]2 [GB] | [^Fd]3 [FA]3 | d3 .G3 | %16
w: ||||||
 .[Ec]6[K:bass] | [EG]6 | [G,B,FG]6 | .[CEG]6 | [Ec]2 [Ec] [E^c]2 [Ac] | d2 e fe[Ad] | %22
w: ||||||
 [Gc]3 [DFB]3 | [Ec]6 |] %24
w: ||
V:2
 [C,C]2 [C,C] [C,G,]3 | [D,G,]2 [D,G,] [D,G,]3 | [G,,G,]2 [G,,G,] [G,,G,]2 [G,,G,] | %3
 [C,^F,]2 [C,F,] .[C,G,]3 | [C,C]2 [C,C] z2 E | [D,G,D]2 [D,G,D] [D,G,D]3 | %6
 [D,C]2 [D,C] [D,C]2 [D,C] | [G,B,F]6 | [C,G,]3 z[K:treble] BA | C,3 z2 A | D,3 z2[K:treble] A | %11
 G,3[K:bass] .G,,3 | [A,,A,]2 [A,,A,] [B,,^G,]2 [C,A,] | [D,G,]3 [D,B,]2 [D,D] | [D,A,]3 [D,C]3 | %15
 [G,B,F]6 | [C,G,]3 z[K:treble] BA | C,3 z2 A | D,3 z2 A | C,3 .G,,2 G, | %20
 [C,G,]2 [_B,,G,] [A,,A,]2 [G,E] | [F,D]2 [E,^C] [D,D][E,C][F,D] | [G,E]3 [G,,G,]3 | [C,G,C]6 |] %24
V:3
 x6 | x6 | x6 | ._E3 z3 | x6 | x6 | x6 | x6 | z3[K:bass] [G,,G,]3 | G,3 G,3 | G,3 G,3 | z3 .G,3 | %12
 x6 | x6 | x6 | x6 | z3[K:bass] [G,,G,]3 | G,3 G,3 | x6 | G,3 .G,2 G | x6 | A3 .A3 | x6 | x6 |] %24
V:4
 x6 | x6 | x6 | x6 | z3 [C,G,]3 | x6 | x6 | x6 | x4[K:treble] x2 | z3 G,,3 | z3 G,,3[K:treble] | %11
 x3[K:bass] x3 | x6 | x6 | x6 | x6 | x4[K:treble] x2 | z3 G,,3 | z3 G,,3 | x6 | x6 | x6 | x6 | %23
 x6 |] %24

